packages/calcite-ui-icons/icons/mooc-24.svg

<?xml version="1.0" encoding="UTF-8"?><svg id="icons" xmlns="http://www.w3.org/2000/svg" viewBox="0 0 24 24"><defs><style>.cls-1{fill:none;}</style></defs><rect class="cls-1" width="24" height="24"/><path d="M17.64746,7.07617l2.22253-2.21906c.19214.08942.40417.14288.63.14288.82843,0,1.5-.67157,1.5-1.5s-.67157-1.5-1.5-1.5-1.5.67157-1.5,1.5c0,.23645.05957.45709.15704.65601l-2.21661,2.21313.70703.70703ZM20,3h1v1h-1v-1ZM20.5,19c-.23694,0-.45807.05988-.65729.15771l-2.18451-2.18799-.70703.70703,2.19104,2.19452c-.08905.19177-.13321.40338-.13321.62872,0,.82843.66257,1.5,1.491,1.5s1.5-.67157,1.5-1.5-.67157-1.5-1.5-1.5ZM21,21h-1v-1h1v1ZM3.5,5c.22601,0,.43811-.05353.63031-.14307l2.20563,2.22021.70898-.70508-2.20178-2.21637c.09735-.19879.15686-.41937.15686-.6557,0-.82843-.67157-1.5-1.5-1.5s-1.5.67157-1.5,1.5.67157,1.5,1.5,1.5ZM3,3h1v1h-1v-1ZM17,12.05365l2.91504-1.44818-7.41504-3.85547-7.41504,3.85547.95117.46674v5.9278h.92773l.02954-5.45801,1.00659.51166v2.60944c0,1.18652,4.28027,2.97363,4.32324,2.99121l.17676.07324.17773-.07324c.04297-.01855,4.32227-1.82812,4.32227-2.99121v-2.60944ZM12.49902,16.72168c-1.28027-.55664-3.31934-1.7207-3.49902-2.05859v-2.15417l3.5,1.73523,3.52581-1.73645.01019,2.08118c-.21094.44336-2.47057,1.66113-3.53698,2.13281ZM12.5,13.25586l-3.83301-1.8811,4.14062-.41382-.0918-.92188-5.66406.54297,5.44824-2.83203,5.44824,2.83203-5.44824,2.67383ZM5.29102,18.01855l-1.14471,1.13318c-.19641-.09436-.41382-.15173-.6463-.15173-.82843,0-1.5.67157-1.5,1.5s.67157,1.5,1.5,1.5,1.5-.67157,1.5-1.5c0-.2298-.05585-.44507-.14819-.63977l1.14624-1.13464-.70703-.70703ZM4,21h-1v-1h1v1ZM2.90601,12.99792l1.08789-.00696-.00586-.99097-1.0777.0069c-.20465-.58484-.75562-1.0069-1.41034-1.0069-.82843,0-1.5.67157-1.5,1.5s.67157,1.5,1.5,1.5c.6496,0,1.19745-.42438,1.40601-1.00208ZM2.00897,13h-1.00897v-1h1.00897v1ZM12.99799,21.09119l.00201-2.08923-.99799-.00195-.00201,2.09247c-.58026.20721-1,.7561-1,1.40753,0,.82843.67157,1.5,1.5,1.5s1.5-.67157,1.5-1.5c0-.65289-.41974-1.20276-1.00201-1.40881ZM13,22v1h-1v-1.00903h1v.00903ZM12.00806,2.9079l-.00201,2.09015.99103.00195.00201-2.09155c.58167-.20642,1.00092-.75598,1.00092-1.40845,0-.82843-.67157-1.5-1.5-1.5s-1.5.67157-1.5,1.5c0,.65186.42719,1.20105,1.00806,1.4079ZM12,1.99902v-.99902h1v1.00897h-1v-.00995ZM22.5,11c-.65149,0-1.2005.42175-1.40765,1.00214l-1.09039-.00214-.00195.99609,1.09125.00214c.20612.58215.75592,1.00177,1.40875,1.00177.82843,0,1.5-.67157,1.5-1.5s-.67157-1.5-1.5-1.5ZM23,13h-1.00897v-1h1.00897v1Z"/></svg>

<svg xmlns="http://www.w3.org/2000/svg" viewBox="0 0 24 24"><path fill="none" d="M0 0h24v24H0z"/><path d="M17.647 7.076l2.223-2.219c.192.09.404.143.63.143A1.5 1.5 0 1 0 19 3.5c0 .236.06.457.157.656L16.94 6.369l.707.707zM20 3h1v1h-1V3zm.5 16c-.237 0-.458.06-.657.158l-2.185-2.188-.707.707 2.191 2.194a1.48 1.48 0 0 0-.133.629c0 .828.663 1.5 1.491 1.5a1.5 1.5 0 0 0 0-3zm.5 2h-1v-1h1v1zM3.5 5c.226 0 .438-.054.63-.143l2.206 2.22.709-.705-2.202-2.216c.097-.2.157-.42.157-.656A1.5 1.5 0 1 0 3.5 5zM3 3h1v1H3V3zm14 9.054l2.915-1.449L12.5 6.75l-7.415 3.855.951.467V17h.928l.03-5.458L8 12.054v2.61c0 1.186 4.28 2.973 4.323 2.99l.177.074.178-.074c.043-.018 4.322-1.828 4.322-2.99v-2.61zm-4.501 4.668C11.219 16.165 9.179 15 9 14.663V12.51l3.5 1.735 3.526-1.736.01 2.08c-.21.444-2.47 1.662-3.537 2.134zm.001-3.466l-3.833-1.881 4.14-.414-.091-.922-5.664.543L12.5 7.75l5.448 2.832-5.448 2.674zm-7.209 4.763l-1.145 1.133A1.486 1.486 0 0 0 3.5 19 1.5 1.5 0 1 0 5 20.5c0-.23-.056-.445-.148-.64l1.146-1.134-.707-.707zM4 21H3v-1h1v1zm-1.094-8.002l1.088-.007L3.988 12l-1.078.007A1.495 1.495 0 0 0 0 12.5 1.5 1.5 0 0 0 1.5 14c.65 0 1.197-.424 1.406-1.002zM2.009 13H1v-1h1.009v1zm10.989 8.091L13 19.002 12.002 19 12 21.092a1.5 1.5 0 0 0-1 1.408 1.5 1.5 0 1 0 3 0c0-.653-.42-1.203-1.002-1.409zM13 22v1h-1v-1.009h1V22zm-.992-19.092l-.002 2.09.991.002L13 2.908A1.496 1.496 0 0 0 12.5 0 1.5 1.5 0 0 0 11 1.5c0 .652.427 1.201 1.008 1.408zM12 1.999V1h1v1.009h-1v-.01zM22.5 11a1.5 1.5 0 0 0-1.408 1.002L20.002 12l-.002.996 1.091.002A1.496 1.496 0 0 0 24 12.5a1.5 1.5 0 0 0-1.5-1.5zm.5 2h-1.009v-1H23v1z"/></svg>
